Icons/org_telegram_messenger.svg

<svg viewBox="0 0 48 48" xmlns:xlink="http://www.w3.org/1999/xlink">
 <defs>
  <linearGradient id="0">
   <stop stop-opacity="0"/>
   <stop offset="1"/>
  </linearGradient>
  <linearGradient xlink:href="#5" id="1" gradientUnits="userSpaceOnUse" gradientTransform="translate(4e-7,-48)" y1="47" x2="0" y2="1"/>
  <clipPath id="2">
   <g transform="translate(0,-1004.3622)">
    <rect rx="4" y="1005.36" x="1" height="46" width="46" fill="#1890d0"/>
   </g>
  </clipPath>
  <clipPath id="3">
   <g transform="translate(0,-1004.3622)">
    <rect rx="4" y="1005.36" x="1" height="46" width="46" fill="#1890d0"/>
   </g>
  </clipPath>
  <linearGradient id="4" gradientUnits="userSpaceOnUse" x1="135" y1="120" x2="160" y2="160" gradientTransform="matrix(0.199239,0,0,0.199239,-0.746294,-1.187015)">
   <stop stop-color="#edf5fb"/>
   <stop offset="1" stop-color="#ffffff"/>
  </linearGradient>
  <linearGradient id="5" gradientUnits="userSpaceOnUse" x1="135" y1="120" x2="160" y2="160" gradientTransform="matrix(0.199239,0,0,0.199239,-0.746294,-1.187015)">
   <stop stop-color="#edf5fb"/>
   <stop offset="1" stop-color="#ffffff"/>
  </linearGradient>
 </defs>
 <g>
  <g transform="translate(0,-1004.3622)">
   <path d="m 5,1006.3622 c -2.216,0 -4,1.784 -4,4 l 0,37.25 c 0,2.216 1.784,4 4,4 l 38,0 c 2.216,0 4,-1.784 4,-4 l 0,-37.25 c 0,-2.216 -1.784,-4 -4,-4 l -38,0 z m -4,41.5 0,0.5 c 0,2.216 1.784,4 4,4 l 38,0 c 2.216,0 4,-1.784 4,-4 l 0,-0.5 c 0,2.216 -1.784,4 -4,4 l -38,0 c -2.216,0 -4,-1.784 -4,-4 z" opacity="0.02"/>
   <path d="m 1,1047.6122 0,0.25 c 0,2.216 1.784,4 4,4 l 38,0 c 2.216,0 4,-1.784 4,-4 l 0,-0.25 c 0,2.216 -1.784,4 -4,4 l -38,0 c -2.216,0 -4,-1.784 -4,-4 z" opacity="0.05"/>
   <rect width="46" height="46" x="1" y="1005.61" rx="4" opacity="0.1"/>
  </g>
 </g>
 <g>
  <g transform="translate(0,-1004.3622)">
   <rect rx="4" y="1005.36" x="1" height="46" width="46" fill="#2face6"/>
  </g>
 </g>
 <g>
  <rect transform="scale(1,-1)" width="46" height="46" x="1" y="-46.998" rx="4" opacity="0.1" fill="url(#1)"/>
 </g>
 <g>
  <g clip-path="url(#2)">
   <g opacity="0.1">
    <g>
     <path d="M 18.777344 33.679688 C 18.003906 33.679688 18.136719 33.386719 17.867188 32.648438 L 15.589844 25.152344 L 29.695312 16.339844 L 31.34375 16.769531 L 29.976562 20.519531 Z M 18.777344 33.679688 "/>
     <path d="M 18.777344 33.679688 C 19.375 33.679688 19.640625 33.40625 19.972656 33.082031 C 20.488281 32.578125 27.148438 26.109375 27.148438 26.109375 L 23.066406 25.121094 L 19.28125 27.511719 L 18.777344 33.480469 Z M 18.777344 33.679688 "/>
     <path d="M 19.1875 27.585938 L 28.820312 34.703125 C 29.921875 35.308594 30.714844 34.996094 30.988281 33.683594 L 34.910156 15.199219 C 35.3125 13.589844 34.296875 12.859375 33.246094 13.335938 L 10.214844 22.21875 C 8.640625 22.851562 8.652344 23.726562 9.925781 24.117188 L 15.835938 25.964844 L 29.519531 17.332031 C 30.164062 16.941406 30.757812 17.148438 30.273438 17.582031 Z M 19.1875 27.585938 "/>
    </g>
   </g>
  </g>
 </g>
 <g>
  <g clip-path="url(#3)">
   <g transform="translate(0,-1)">
    <g>
     <path d="M 18.777344 33.679688 C 18.003906 33.679688 18.136719 33.386719 17.867188 32.648438 L 15.589844 25.152344 L 29.695312 16.339844 L 31.34375 16.769531 L 29.976562 20.519531 Z M 18.777344 33.679688 " fill="#c8d8ea"/>
     <path d="M 18.777344 33.679688 C 19.375 33.679688 19.640625 33.40625 19.972656 33.082031 C 20.488281 32.578125 27.148438 26.109375 27.148438 26.109375 L 23.066406 25.121094 L 19.28125 27.511719 L 18.777344 33.480469 Z M 18.777344 33.679688 " fill="#a5c1cf"/>
     <path d="M 19.1875 27.585938 L 28.820312 34.703125 C 29.921875 35.308594 30.714844 34.996094 30.988281 33.683594 L 34.910156 15.199219 C 35.3125 13.589844 34.296875 12.859375 33.246094 13.335938 L 10.214844 22.21875 C 8.640625 22.851562 8.652344 23.726562 9.925781 24.117188 L 15.835938 25.964844 L 29.519531 17.332031 C 30.164062 16.941406 30.757812 17.148438 30.273438 17.582031 Z M 19.1875 27.585938 " fill="url(#5)"/>
    </g>
   </g>
  </g>
 </g>
 <g>
  <g transform="translate(0,-1004.3622)">
   <path d="m 1,1043.3622 0,4 c 0,2.216 1.784,4 4,4 l 38,0 c 2.216,0 4,-1.784 4,-4 l 0,-4 c 0,2.216 -1.784,4 -4,4 l -38,0 c -2.216,0 -4,-1.784 -4,-4 z" opacity="0.1"/>
  </g>
 </g>
</svg>

<svg viewBox="0 0 48 48"><defs><linearGradient id="linearGradient3764" x1="1" x2="47" gradientUnits="userSpaceOnUse" gradientTransform="translate(-48.000001,0.00221467)"><stop stop-color="#1ea5e4" stop-opacity="1"/><stop offset="1" stop-color="#2face6" stop-opacity="1"/></linearGradient><clipPath id="clipPath-544385265"><g transform="translate(0,-1004.3622)"><rect rx="4" y="1005.36" x="1" height="46" width="46" fill="#1890d0"/></g></clipPath><clipPath id="clipPath-557134244"><g transform="translate(0,-1004.3622)"><rect rx="4" y="1005.36" x="1" height="46" width="46" fill="#1890d0"/></g></clipPath><linearGradient id="0" gradientUnits="userSpaceOnUse" x1="135" y1="120" x2="160" y2="160" gradientTransform="matrix(0.199239,0,0,0.199239,-0.746294,-1.187015)"><stop stop-color="#edf5fb"/><stop offset="1" stop-color="#fff"/></linearGradient><linearGradient id="0" gradientUnits="userSpaceOnUse" x1="135" y1="120" x2="160" y2="160" gradientTransform="matrix(0.199239,0,0,0.199239,-0.746294,-1.187015)"><stop stop-color="#edf5fb"/><stop offset="1" stop-color="#fff"/></linearGradient></defs><g><path d="m 1 43 l 0 0.25 c 0 2.216 1.784 4 4 4 l 38 0 c 2.216 0 4 -1.784 4 -4 l 0 -0.25 c 0 2.216 -1.784 4 -4 4 l -38 0 c -2.216 0 -4 -1.784 -4 -4 z m 0 0.5 l 0 0.5 c 0 2.216 1.784 4 4 4 l 38 0 c 2.216 0 4 -1.784 4 -4 l 0 -0.5 c 0 2.216 -1.784 4 -4 4 l -38 0 c -2.216 0 -4 -1.784 -4 -4 z" opacity="0.02"/><path d="m 1 43.25 l 0 0.25 c 0 2.216 1.784 4 4 4 l 38 0 c 2.216 0 4 -1.784 4 -4 l 0 -0.25 c 0 2.216 -1.784 4 -4 4 l -38 0 c -2.216 0 -4 -1.784 -4 -4 z" opacity="0.05"/><path d="m 1 43 l 0 0.25 c 0 2.216 1.784 4 4 4 l 38 0 c 2.216 0 4 -1.784 4 -4 l 0 -0.25 c 0 2.216 -1.784 4 -4 4 l -38 0 c -2.216 0 -4 -1.784 -4 -4 z" opacity="0.1"/></g><g><rect width="46" height="46" x="-47" y="1" rx="4" transform="matrix(0,-1,1,0,0,0)" fill="url(#linearGradient3764)" fill-opacity="1"/></g><g><g clip-path="url(#clipPath-544385265)"><g opacity="0.1"><!-- color: #2face6 --><g><path d="m 18.777 33.68 c -0.773 0 -0.641 -0.293 -0.91 -1.031 l -2.277 -7.496 l 14.11 -8.813 l 1.648 0.43 l -1.367 3.75 m -11.199 13.16" fill="#000"/><path d="m 18.777 33.68 c 0.598 0 0.863 -0.273 1.195 -0.598 c 0.516 -0.504 7.176 -6.973 7.176 -6.973 l -4.082 -0.988 l -3.785 2.391 l -0.504 5.969 m 0 0.199" fill="#000"/><path d="m 19.19 27.586 l 9.633 7.117 c 1.102 0.605 1.895 0.293 2.168 -1.02 l 3.922 -18.484 c 0.402 -1.609 -0.613 -2.34 -1.664 -1.863 l -23.03 8.883 c -1.574 0.633 -1.563 1.508 -0.289 1.898 l 5.91 1.848 l 13.684 -8.633 c 0.645 -0.391 1.238 -0.184 0.754 0.25 m -11.09 10" fill="#000"/></g></g></g></g><g><g clip-path="url(#clipPath-557134244)"><g transform="translate(0,-1)"><!-- color: #2face6 --><g><path d="m 18.777 33.68 c -0.773 0 -0.641 -0.293 -0.91 -1.031 l -2.277 -7.496 l 14.11 -8.813 l 1.648 0.43 l -1.367 3.75 m -11.199 13.16" fill="#c8d8ea"/><path d="m 18.777 33.68 c 0.598 0 0.863 -0.273 1.195 -0.598 c 0.516 -0.504 7.176 -6.973 7.176 -6.973 l -4.082 -0.988 l -3.785 2.391 l -0.504 5.969 m 0 0.199" fill="#a5c1cf"/><path d="m 19.19 27.586 l 9.633 7.117 c 1.102 0.605 1.895 0.293 2.168 -1.02 l 3.922 -18.484 c 0.402 -1.609 -0.613 -2.34 -1.664 -1.863 l -23.03 8.883 c -1.574 0.633 -1.563 1.508 -0.289 1.898 l 5.91 1.848 l 13.684 -8.633 c 0.645 -0.391 1.238 -0.184 0.754 0.25 m -11.09 10" fill="url(#0)"/></g></g></g></g><g><g transform="translate(0,-1004.3622)"><path d="m 1 1043.36 0 4 c 0 2.216 1.784 4 4 4 l 38 0 c 2.216 0 4 -1.784 4 -4 l 0 -4 c 0 2.216 -1.784 4 -4 4 l -38 0 c -2.216 0 -4 -1.784 -4 -4 z" opacity="0.1"/></g></g></svg>
